X: 15
T:Plains of Boyle, The
T:Magh Luirg
M:4/4
L:1/8
R:Hornpipe
K:D
FG[|:AFDE FEDF|(3ABA GB AFD2|fedf edce|d=cAB cABG|!
AFDE FEDF|(3ABA GB AFD2|fedB (3ABA GE|1F2D2 D2FG:|2F2D2 D2fg|!
|:afdf g2fe|dfed BAFG|A2FA BAFG|A2FA BAfg|!
afdf g2fe|dfed BAFG|~A3F GBAG|1F2D2 D2fg:|2F2D2 D2FG|]!
